**kern	**kern	**kern	**kern
*staff3	*staff4	*staff1	*staff2
*clefF4	*clefF4	*clefG2	*clefG2
*k[f#c#]	*k[f#c#]	*k[f#c#]	*k[f#c#]
*M2/4	*M2/4	*M2/4	*M2/4
*D:	*D:	*D:	*D:
=-	=-	=-	=-
2r	(8f#L 8a	(8ff#L 8aa	2r
.	8c#'J) 8e#'	8cc#'J) 8ee#'	.
.	(8c#L 8e#	(8cc#L 8ee#	.
.	8d'J) 8f#'	8dd'J) 8ff#'	.
=97	=97	=97	=97
2r	(8dL 8f#	(8ddL 8ff#	2r
.	8A#'J) 8c#'	8a#'J) 8cc#'	.
.	(8A#L 8c#	(8a#L 8cc#	.
.	8B'J) 8d'	8b'J) 8dd'	.
*	*clefF4	*	*
=98	=98	=98	=98
2r	(8BL 8d	(8bL 8dd	2r
.	8F#'J) 8A#'	8f#'J) 8a#'	.
.	(8F#L 8A#	(8f#L 8a#	.
.	8G'J) 8B'	8g'J) 8b'	.
=99	=99	=99	=99
2r	(8GL 8B	(8gL 8b	2r
.	8E#'J) 8G#'	8e#'J) 8g#'	.
.	(8E#L 8G#	(8e#L 8g#	.
.	8F#'J) 8A'	8f#'J) 8a'	.
=100	=100	=100	=100
2r	4.F# 4.A	4.f# 4.a	2r
.	8D 8F#	8d 8f#	.
=101	=101	=101	=101
2r	(8DL 8F#	(8dL 8f#	2r
.	8E'J) 8G'	8e'J) 8g'	.
.	(8EL 8G	(8eL 8g	.
.	8AA'J) 8E'	8A'J) 8e'	.
=102	=102	=102	=102
2r	(8AAL 8E	(8AL 8e	2r
.	8D'J) 8F#'	8d'J) 8f#'	.
.	(8DL 8F#	(8dL 8f#	.
.	8FF#'J) 8D'	8F#'J) 8d'	.
=103	=103	=103	=103
2r	(8FF#L 8D	(8F#L 8d	2r
.	8AA'J) 8E'	8A'J) 8e'	.
.	4r	4r	.
=104:|!	=104:|!	=104:|!	=104:|!
*-	*-	*-	*-
